src/assets/duotone/FlashCircle.svg

<svg width="24" height="24" viewBox="0 0 24 24"  xmlns="http://www.w3.org/2000/svg">
<path opacity="0.4" d="M11.9702 22C17.4931 22 21.9702 17.5228 21.9702 12C21.9702 6.47715 17.4931 2 11.9702 2C6.44737 2 1.97021 6.47715 1.97021 12C1.97021 17.5228 6.44737 22 11.9702 22Z" />
<path d="M15.25 11.3002H13.55V7.34017C13.55 6.42017 13.05 6.23017 12.44 6.92017L12 7.42017L8.27997 11.6502C7.76997 12.2302 7.97997 12.7002 8.74997 12.7002H10.45V16.6602C10.45 17.5802 10.95 17.7702 11.56 17.0802L12 16.5802L15.72 12.3502C16.23 11.7702 16.02 11.3002 15.25 11.3002Z" />
</svg>

<?xml version="1.0" encoding="UTF-8"?>
<svg width="24" height="24" viewBox="0 0 24 24" xmlns="http://www.w3.org/2000/svg">
 <path d="m11.97 22c5.5229 0 10-4.4772 10-10 0-5.5228-4.4771-10-10-10-5.5228 0-10 4.4772-10 10 0 5.5228 4.4772 10 10 10z" opacity=".4"/>
 <path d="m15.25 11.3h-1.7v-3.96c0-0.92-0.5-1.11-1.11-0.42l-0.44 0.5-3.72 4.23c-0.51 0.58-0.3 1.05 0.47 1.05h1.7v3.96c0 0.92 0.5 1.11 1.11 0.42l0.44-0.5 3.72-4.23c0.51-0.58 0.3-1.05-0.47-1.05z"/>
</svg>
